!!!!SEGMENT: pl-gd--ee-2628--005-001_stabile-annibale--il-primo-libro-de-madrigali-a-cinque-voci-hor-vien-il-lieto-april.krn
!!!cenid: 15xx:1046
!!!COM: Stabile, Annibale
!!!COM-rismID: pe30009662
!!!CDT: ~1535-1595/04
!!!CNT: Italian
!!!GTL: Il primo libro de madrigali a cinque voci
!!!OTL: Hor vien’il lieto April
!!!OMV: 001
!!!PDT: 1586
!!!AGN:
!!!SMS-siglum: PL-GD
!!!SMS-shelfmark: Ee 2628
!!!SMS-variant:
!!!SMS-altvar:
!!!SMS-shelfwork: 005-001 G
!!!NIFC-rismSourceID: 990060531
!!!NIFC-islandoraID: pl-gd:66139
!!!URL-pdf-islandora: https://repozytorium.nifc.pl/islandora/object/pl-gd%3A66139/datastream/PDF/view
!!!URL-scan: https://polish.musicsources.pl/pl/lokalizacje/galeria/klocki-introligatorskie/673 @EN{Scan on Polish Music Herritage in Open Access Website} @PL{Skany w portalu Dziedzictwo Muzyki Polskiej w otwartym dostępie}
!!!ONB-nifc: UWAGA: Canto: s. 78-89, Tenore: s. 233-245, Basso: s. 390-401, Quinto: s. 712-723. Dla głosu Alto proszę skorzystać z https://pbc.gda.pl/dlibra/doccontent?id=79410, str. 25-48. Uwaga: utwory podzielone wg spisu treści dostępnych na końcu ksiąg – proszę sprawdzać sąsiednie tytuły. Głos Quinto proszę umieszczać wg ambitusu (może się różnić w zależności od utworu).
!!!AIN: 1 alto 1 bass 2 soprn 1 tenor
!!!key: d:aeo
**kern	**text	**kern	**text	**kern	**text	**kern	**text	**kern	**text
*part5	*part5	*part4	*part4	*part3	*part3	*part2	*part2	*part1	*part1
*staff5	*staff5	*staff4	*staff4	*staff3	*staff3	*staff2	*staff2	*staff1	*staff1
*I"BASSO	*	*I"TENORE	*	*I"ALTO	*	*I"QVINTO	*	*I"CANTO	*
*I'B	*	*I'T	*	*I'A	*	*I'V 5	*	*I'C	*
*Ibass	*	*Itenor	*	*Ialto	*	*Isoprn	*	*Isoprn	*
*ICvox	*	*ICvox	*	*ICvox	*	*ICvox	*	*ICvox	*
*clefF4	*	*clefC4	*	*clefC3	*	*clefC1	*	*clefC1	*
*k[b-]	*	*k[b-]	*	*k[b-]	*	*k[b-]	*	*k[b-]	*
*d:aeo	*	*d:aeo	*	*d:aeo	*	*d:aeo	*	*d:aeo	*
*M2/1	*	*M2/1	*	*M2/1	*	*M2/1	*	*M2/1	*
*met(C)	*	*met(C)	*	*met(C)	*	*met(C)	*	*met(C)	*
=1-	=1-	=1-	=1-	=1-	=1-	=1-	=1-	=1-	=1-
!LO:TX:a:i:t=Prima parte.	!	!LO:TX:a:i:t=Prima parte.	!	!LO:TX:a:i:t=Prima parte.	!	!LO:TX:a:i:t=Prima parte.	!	!LO:TX:a:i:t=Prima parte.	!
00r	.	0r	.	1r	.	1r	.	2dd\	HOr
.	.	.	.	.	.	.	.	4cc\	vien'-
.	.	.	.	.	.	.	.	4b-\	-il
.	.	.	.	2r	.	2r	.	4a\	lie-
.	.	.	.	.	.	.	.	4a\	to A-
.	.	.	.	2G/	HOr	2dd\	HOr	4g/	-pril
.	.	.	.	.	.	.	.	4b-\	car-
=2-	=2-	=2-	=2-	=2-	=2-	=2-	=2-	=2-	=2-
.	.	1r	.	4A/	vien'-	4cc\	vien'-	4a\	-co
.	.	.	.	4B-/	-il	4b-\	-il	2g/	fi
.	.	.	.	4c/	lie-	4a\	lie-	.	.
.	.	.	.	4d\	to A-	4a\	to A-	4f#X/	fio-
.	.	2d\	HOR	2G/	-pril	4g/	-pril	2g/	-ri
.	.	.	.	.	.	4b-\	car-	.	.
.	.	4c\	vien'-	2r	.	4a\	-co	4r	.
.	.	4B-\	-il	.	.	2g/	di	4g/	Hor
!	!	!	!	!	!	!	!	!LO:SIC:v:t=custos a	!
!	!	!	!	!	!	!	!	!LO:LB:g=original	!
=3-	=3-	=3-	=3-	=3-	=3-	=3-	=3-	=3-	=3-
0r	.	4A/	lie-	2r	.	.	.	8a\	vie-
.	.	.	.	.	.	.	.	8b-\	.
.	.	4A/	to A-	.	.	4f#X/	fio-	8cc\	.
.	.	.	.	.	.	.	.	8a\	.
!	!	!	!	!	!	!LO:SIC:v:t=custos g	!	!	!
!	!	!	!	!	!	!LO:LB:g=original	!	!	!
*	*	*	*	*	*ij	*	*	*	*
.	.	4G/	-pril	2d\	HOr	4g/	-ri	4b-\	.
.	.	4D/	car-	.	.	4.fny/	car-	2a\	-n'il
.	.	4F/	-co	4c\	vien'-	.	.	.	.
.	.	.	.	.	.	8f/	-co	.	.
.	.	4G/	di	4B-/	-il	4d/	di	2g/	lie-
.	.	2D/	fio-	4A/	lie-	2d/	fio-	.	.
.	.	.	.	4A/	to A-	.	.	4f#X/	to A-
!	!	!	!	!LO:SIC:v:t=custos B-	!	!	!	!	!
!	!	!	!	!LO:LB:g=original	!	!	!	!	!
=4-	=4-	=4-	=4-	=4-	=4-	=4-	=4-	=4-	=4-
4r	.	4G/	-ri	4B-/	-pril	4d/	-ri	4g/	-pril
*	*	*	*	*	*Xij	*	*	*	*
4G\	HOr	4G/	Hor	2d\	car-	4d/	Hor	4b-\	car-
!	!	!LO:SIC:v:t=custos A	!	!	!	!	!	!	!
!	!	!LO:LB:g=original	!	!	!	!	!	!	!
4F\	vien'-	4A/	vien'-	.	.	4f/	vien'-	4cc\	-co
4E\	-il	4G/	-il	2c\	-co	4g/	-il	4cc\	di
4D/	lie-	4A/	lie-	.	.	2.f/	lie-	2dd\	fio-
4D/	to A-	4F/	to A-	4B-/	di	.	.	.	.
!	!	!	!	!	!	!	!	!LO:SIC:v:t=custos g	!
!	!	!	!	!	!	!	!	!LO:LB:g=original	!
2C/	-pril	4.G/	-pril	2c/	fio-	.	.	2g/	-ri
.	.	.	.	.	.	4e/	to A-	.	.
.	.	8A/	.	.	.	.	.	.	.
=5-	=5-	=5-	=5-	=5-	=5-	=5-	=5-	=5-	=5-
2BB-/	car-	4B-\	.	4F/	-ri	4d/	-pril	2r	.
*	*	*	*	*	*ij	*	*	*	*
.	.	4d\	car-	4.f\	car-	4b-\	car-	.	.
4F\	-co	4c\	-co	.	.	4a\	-co	4r	.
.	.	.	.	8f\	-co	.	.	.	.
!	!	!LO:N:acc=#	!	!	!	!	!	!	!
4G\	di	4Bn\	di	4d\	di	4g/	di	2dd\	car-
!	!	!	!	!	!	!LO:SIC:v:t=custos g	!	!	!
!	!	!	!	!	!	!LO:LB:g=original	!	!	!
2C/	fio-	2c\	fio-	2e-X\	fio-	2g/	fio-	.	.
.	.	.	.	.	.	.	.	4cc\	-co
!LO:SIC:v:t=custos D	!	!	!	!	!	!	!	!	!
!LO:LB:g=original	!	!	!	!	!	!	!	!	!
4D/	-ri	4F/	-ri	4d\	-ri	4f/	-ri	4b-\	di
*	*	*	*	*	*Xij	*	*	*	*
4AA/	car-	4A/	car-	4c/	car-	4e/	di	4.a\	fio-
!	!	!LO:SIC:v:t=custos D	!	!	!	!	!	!	!
!	!	!LO:LB:g=original	!	!	!	!	!	!	!
=6-	=6-	=6-	=6-	=6-	=6-	=6-	=6-	=6-	=6-
4BB-/	-co	4D/	-co	4B-/	-co	2d/	fio-	.	.
.	.	.	.	.	.	.	.	8g\	.
!	!	!	!	!LO:SIC:v:t=custos B-	!	!	!	!	!
!	!	!	!	!LO:LB:g=original	!	!	!	!	!
4GG/	di	4G/	di	4B-/	di	.	.	4.g/	.
2D/	fio-	4A/	fio-	2A/	fio-	4d/	-ri	.	.
.	.	.	.	.	.	.	.	8f#X/	.
.	.	4D/	-ri	.	.	4dd\	L'a-	4f#/	.
4GG/	-ri	2.d\	L'a-	4G/	-ri	4b-\	-ria	1g	-ri
4G\	L'a-	.	.	4G/	L'a-	4b-\	s'al-	.	.
4G\	-ria	.	.	8B-/	-ria	8g\	-le-	.	.
.	.	.	.	8c/	.	8a\	.	.	.
4G\	s'al-	4B-y\	-ria	8d\	.	8b-\	.	.	.
.	.	.	.	8eny\	.	8g\	.	.	.
=7-	=7-	=7-	=7-	=7-	=7-	=7-	=7-	=7-	=7-
4.F\	-le-	4c\	s'al-	4f\	.	4.a\	.	1r	.
.	.	2A/	-le-	4c/	s'al-	.	.	.	.
8E\	.	.	.	.	.	8g/	.	.	.
2D\	.	.	.	8d\	-le-	8f/	.	.	.
.	.	.	.	8e\	.	8g\	.	.	.
.	.	4F/	-gra	8f\	.	8a\	.	.	.
.	.	.	.	8d\	.	8f/	.	.	.
*	*	*	*ij	*	*	*	*	*	*
1C	-gra	2c\	L'a-	4e\	.	4g\	.	4r	.
.	.	.	.	2f\	.	4a\	.	4cc\	L'a-
.	.	4c\	-ria	.	.	2g/	.	4cc\	-ria
.	.	4c\	s'al-	4e\	.	.	.	4cc\	s'al-
!LO:SIC:v:t=custos F	!	!	!	!	!	!	!	!	!
!LO:LB:g=original	!	!	!	!	!	!	!	!	!
=8-	=8-	=8-	=8-	=8-	=8-	=8-	=8-	=8-	=8-
4r	.	8F/	-le-	2f\	-gra	4f/	-gra	8a\	-le-
.	.	8G/	.	.	.	.	.	8b-\	.
4F\	L'a-	8A/	.	.	.	4f/	L'a-	8cc\	.
.	.	8B-\	.	.	.	.	.	8b-\	.
!	!	!	!	!	!	!LO:SIC:v:t=custos a	!	!LO:SIC:v:t=custos a	!
!	!	!	!	!	!	!LO:LB:g=original	!	!LO:LB:g=original	!
4F\	-ria	4c\	.	2f\	L'a-	8a\	-ria	8a\	.
.	.	.	.	.	.	8b-\	.	8g\	.
4F\	s'al-	4A/	-gra	.	.	8cc\	.	8fny/	.
*	*	*	*Xij	*	*	*	*	*	*
.	.	.	.	.	.	8a\	.	8e/	.
8BB-/	-le-	2r	.	8f\	-ria	4.b-\	.	8d/	.
8C/	.	.	.	8e\	.	.	.	8e/	.
8D/	.	.	.	8d\	.	.	.	8f/	.
8C/	.	.	.	8e\	.	8cc\	.	8e/	.
!	!	!	!	!LO:SIC:v:t=custos f	!	!	!	!	!
!	!	!	!	!LO:LB:g=original	!	!	!	!	!
8BB-/	.	4r	.	4f\	.	4dd\	.	8d/	.
8C/	.	.	.	.	.	.	.	8e/	.
8D\	.	4f\	L'a-	4d\	s'al-	4b-\	s'al-	8f/	.
8E\	.	.	.	.	.	.	.	8g/	.
!	!	!LO:SIC:v:t=custos f	!	!	!	!	!	!	!
!	!	!LO:LB:g=original	!	!	!	!	!	!	!
=9-	=9-	=9-	=9-	=9-	=9-	=9-	=9-	=9-	=9-
8F\	.	4f\	-ria	4c/	-le-	2a\	-le-	8a\	.
8G\	.	.	.	.	.	.	.	8b-\	.
8A\	.	4f\	s'al-	4A/	-gra	.	.	2cc\	.
8F\	.	.	.	.	.	.	.	.	.
2G\	.	2d\	-le-	4r	.	1g	-gra	.	.
!	!	!	!	!	!	!	!	!LO:N:acc=#	!
.	.	.	.	4d\	e'l	.	.	4bn\	.
2C/	-gra	2c\	-gra	2e\	Mar	.	.	2cc\	-gra
2C/	e'l	2G/	e'l	2e\	tran-	2g/	e'l	2cc\	e'l
=10-	=10-	=10-	=10-	=10-	=10-	=10-	=10-	=10-	=10-
1F	Mar	1A	Mar	2f\	-quil-	2c/	Mar	2a\	Mar
.	.	.	.	2c/	-lo	2f/	tran-	2cc\	tran-
1D	tran-	1F	tran-	2.d\	gia-	1.f	-quil-	2b-y\	-quil-
!	!	!	!	!	!	!	!	!LO:SIC:v:t=custos a	!
!	!	!	!	!	!	!	!	!LO:LB:g=original	!
.	.	.	.	.	.	.	.	2.a\	-lo
.	.	.	.	8c/	.	.	.	.	.
.	.	.	.	8B-/	.	.	.	.	.
!LO:SIC:v:t=custos D	!	!	!	!	!	!	!	!	!
!LO:LB:g=original	!	!	!	!	!	!	!	!	!
=11-	=11-	=11-	=11-	=11-	=11-	=11-	=11-	=11-	=11-
2D/	-quil-	2F/	-quil-	2A/	.	.	.	.	.
.	.	.	.	.	.	.	.	4g\	.
2D/	-lo	2F/	-lo	2B-/	.	2f/	-lo	1f	.
1C	gia-	1G	gia-	1c	-ce	1cc	gia-	.	.
.	.	.	.	.	.	.	.	2e/	gia-
=12-	=12-	=12-	=12-	=12-	=12-	=12-	=12-	=12-	=12-
1FF	-ce	4A/	-ce	4r	.	4cc\	-ce	4f/	-ce
.	.	4F/	(et)	4f\	(et)	4cc\	(et)	4a\	(et)
.	.	4F/	o-	4f\	o-	4cc\	o-	4a\	o-
.	.	4F/	-gni	4f\	-gni	4cc\	-gni	4a\	-gni
!	!	!	!	!	!	!LO:SIC:v:t=custos dd	!	!	!
!	!	!	!	!	!	!LO:LB:g=original	!	!	!
1r	.	2B-\	fe-	2.f\	fe-	2dd\	fe-	2b-\	fe-
.	.	4A/	ra in	.	.	4cc\	ra in	4cc\	ra in
.	.	2B-\	a-	4f\	ra in	2b-\	a-	2dd\	a-
!	!	!	!	!LO:SIC:v:t=custos f	!	!	!	!	!
!	!	!	!	!LO:LB:g=original	!	!	!	!	!
=13-	=13-	=13-	=13-	=13-	=13-	=13-	=13-	=13-	=13-
1r	.	.	.	4.f\	a-	.	.	.	.
.	.	4F/	-mo-	.	.	4a\	-mo-	4cc\	-mo-
.	.	.	.	8f\	-mo-	.	.	.	.
.	.	4c\	-ro-	4e\	-ro-	4g/	-ro-	4cc\	-ro-
.	.	4d\	-ſa	4f\	-ſa	4f/	-ſa	4b-\	-ſa
!	!	!LO:SIC:v:t=custos c	!	!	!	!	!	!	!
!	!	!LO:LB:g=original	!	!	!	!	!	!	!
4r	.	1c	pa-	4.e\	pa-	1g	pa-	1cc	pa-
4C/	(et)	.	.	.	.	.	.	.	.
.	.	.	.	8d\	.	.	.	.	.
4C/	o-	.	.	2e\	.	.	.	.	.
4C/	-gni	.	.	.	.	.	.	.	.
=14-	=14-	=14-	=14-	=14-	=14-	=14-	=14-	=14-	=14-
2F\	fe-	1c	-ce	2f\	-ce	2f/	-ce	2a\	-ce
4E\	ra in	.	.	2c/	in	4g/	in	4g/	in
2F\	a-	.	.	.	.	2a\	a-	2f/	a-
.	.	1r	.	4.c/	a-	.	.	.	.
4C/	-mo-	.	.	.	.	4g/	-mo-	4e/	-mo-
.	.	.	.	8c/	-mo-	.	.	.	.
!	!	!	!	!LO:N:acc=#	!	!	!	!LO:SIC:v:t=custos d	!
!	!	!	!	!	!	!	!	!LO:LB:g=original	!
4G\	-ro-	.	.	4Bn/	-ro-	4g/	-ro-	4d/	-ro-
4A\	-ſa	.	.	4c/	-ſa	4f/	-ſa	4c/	-ſa
=15-	=15-	=15-	=15-	=15-	=15-	=15-	=15-	=15-	=15-
!	!	!	!	!LO:N:acc=#	!	!	!	!	!
1G	pa-	2r	.	4.Bn/	pa-	1g	pa-	1d	pa-
.	.	.	.	8A/	.	.	.	.	.
!	!	!	!	!LO:N:acc=#	!	!	!	!	!
.	.	2.G/	Dol-	2Bn/	.	.	.	.	.
2C/	-ce	.	.	2c/	-ce	2g/	-ce	2e/	-cce
.	.	4G/	-ce	.	.	.	.	.	.
2.GG/	Dol-	2G/	gio-	2.d\	Dol-	2.b-\	Dol-	2.g/	Dol-
=16-	=16-	=16-	=16-	=16-	=16-	=16-	=16-	=16-	=16-
.	.	2G/	-iſ-	.	.	.	.	.	.
4GG/	-ce	.	.	4d\	-ce	4b-\	-ce	4g/	-ce
2GG/	gio-	2D/	-ce	2G/	gio-	2b-\	gio-	2g/	gio-
!LO:SIC:v:t=custos D	!	!	!	!LO:SIC:v:t=custos A	!	!	!	!	!
!LO:LB:g=original	!	!	!	!LO:LB:g=original	!	!	!	!	!
2D/	-iſ-	4r	.	2A/	-iſ	2a\	-i-	4f/	-i-
.	.	2d\	de	.	.	.	.	8e/	.
.	.	.	.	.	.	.	.	8d/	.
2AA/	-e	.	.	4A/	ce	2a\	-ſce	2e/	.
.	.	4c\	ſuoi	4a\	de	.	.	.	.
=17-	=17-	=17-	=17-	=17-	=17-	=17-	=17-	=17-	=17-
4r	.	2.B-\	lu-	4g\	ſuo	1r	.	4d/	-ſce
4D/	de	.	.	2f\	lie-	.	.	2dd\	de
2F\	ſuoi	.	.	.	.	.	.	.	.
.	.	4A/	-tiar-	4f\	-tar-	.	.	2cc\	ſuoi
!	!	!	!	!	!	!LO:SIC:v:t=custos dd	!	!	!
!	!	!	!	!	!	!LO:LB:g=original	!	!	!
8BB-/	lie-	4B-\	-do-	1f	-do-	4r	.	.	.
8C/	.	.	.	.	.	.	.	.	.
8D\	.	4F/	-ri	.	.	2dd\	de	2b-\	lie-
8E\	.	.	.	.	.	.	.	.	.
4F\	.	2r	.	.	.	.	.	.	.
4FF/	ti ar-	.	.	.	.	4cc\	ſuoi	2a\	ti ar-
=18-	=18-	=18-	=18-	=18-	=18-	=18-	=18-	=18-	=18-
8GG/	-do-	2r	.	1d	-ri	4b-\	lie-	.	.
8AA/	.	.	.	.	.	.	.	.	.
8BB-/	.	.	.	.	.	4b-\	ti ar-	4.g/	-do-
8C/	.	.	.	.	.	.	.	.	.
2D/	.	2.D/	Miſe-	.	.	2a\	-do-	.	.
.	.	.	.	.	.	.	.	8f#X/	.
.	.	.	.	.	.	.	.	4f#/	.
!	!	!	!	!	!	!	!	!LO:SIC:v:t=custos g	!
!	!	!	!	!	!	!	!	!LO:LB:g=original	!
1GG	-ri	.	.	2r	.	2g/	-ri	1g	-ri
.	.	4D/	-ro	.	.	.	.	.	.
.	.	2D/	io	2.d\	Miſe-	2.b-\	Miſe-	.	.
=19-	=19-	=19-	=19-	=19-	=19-	=19-	=19-	=19-	=19-
2r	.	1E-X	vi-	.	.	.	.	1r	.
.	.	.	.	4d\	-ro	4b-\	-ro	.	.
2.G\	Miſe-	.	.	2c/	io	2g/	io	.	.
!	!	!LO:SIC:v:t=custos D	!	!	!	!	!	!	!
!	!	!LO:LB:g=original	!	!	!	!	!	!	!
.	.	1D	-uo	2.d\	vi-	4b-\	vi-	2r	.
4F#X\	-ro	.	.	.	.	8a\	.	.	.
.	.	.	.	.	.	8g\	.	.	.
2F#\	io	.	.	.	.	2a\	.	2.dd\	Mi-
.	.	.	.	4c/	.	.	.	.	.
!LO:SIC:v:t=custos G	!	!	!	!	!	!	!	!	!
!LO:LB:g=original	!	!	!	!	!	!	!	!	!
=20-	=20-	=20-	=20-	=20-	=20-	=20-	=20-	=20-	=20-
1G	vi-	2r	.	1B-y	.	1g	-uo	.	.
.	.	.	.	.	.	.	.	4dd\	-ſe-
.	.	2.d\	Miſe-	.	.	.	.	2dd\	ro io
1C	-uo	.	.	0G	-uo	2r	.	1ee-X	vi-
.	.	4c\	-ro	.	.	.	.	.	.
.	.	2c\	io	.	.	2.cc\	Miſe-	.	.
=21-	=21-	=21-	=21-	=21-	=21-	=21-	=21-	=21-	=21-
2r	.	2.d\	vi-	.	.	.	.	2dd\	-uo
.	.	.	.	.	.	4b-\	-ro	.	.
2GG/	in	.	.	.	.	2b-\	io	2g/	in
.	.	4d\	uo in	.	.	.	.	.	.
4.D/	ſo-	4d\	ſo-	1r	.	4.a\	vi-	4.fny/	ſo-
.	.	4d\	-li-	.	.	.	.	.	.
8E\	-li-	.	.	.	.	8g\	.	8g/	-li-
!	!	!	!	!	!	!LO:SIC:v:t=custos f	!	!	!
!	!	!	!	!	!	!LO:LB:g=original	!	!	!
4Fny\	-ta-	4c\	-ta-	.	.	8f/	.	4a\	-ta-
.	.	.	.	.	.	8e/	.	.	.
4G\	ry hor-	4B-\	ry hor-	.	.	8d/	.	4b-\	ry hor-
.	.	.	.	.	.	8e/	.	.	.
=22-	=22-	=22-	=22-	=22-	=22-	=22-	=22-	=22-	=22-
2F\	-ro-	2c\	-ro-	4r	.	4f/	.	2a\	-ro-
.	.	.	.	4c/	in	4f/	-u'in	.	.
2BB-/	-ri	2B-\	-ri	4.d\	ſo-	4.f/	ſo-	2b-\	-ri
.	.	.	.	8e\	-li-	8g/	-li-	.	.
!	!	!	!	!LO:SIC:v:t=custos f	!	!	!	!	!
!	!	!	!	!LO:LB:g=original	!	!	!	!	!
1r	.	2r	.	4f\	-ta-	4a\	-ta-	2r	.
.	.	.	.	4g\	ry hor-	4b-\	ry hor-	.	.
.	.	1F/	Pian-	2f\	-ro-	2cc\	-ro-	2a\	Pian-
=23-	=23-	=23-	=23-	=23-	=23-	=23-	=23-	=23-	=23-
1BB-	Pian-	.	.	2B-/	-ri	2dd\	-ri	2.b-\	-gen-
.	.	1B-	-gen-	2d\	Pian-	2dd\	Pian-	.	.
.	.	.	.	.	.	.	.	4a\	.
1E-X	-gen-	.	.	0e-X	-gen-	2b-\	-gen-	4g/	.
.	.	.	.	.	.	.	.	4f/	.
!	!	!	!	!	!	!	!	!LO:SIC:v:t=custos g	!
!	!	!	!	!	!	!	!	!LO:LB:g=original	!
.	.	2G/	-do	.	.	2b-\	-do	1g\	.
=24-	=24-	=24-	=24-	=24-	=24-	=24-	=24-	=24-	=24-
2C/	-do	2c\	gri-	.	.	1cc	gri-	.	.
1c	gri-	2C/	do et	.	.	.	.	2g/	-do
!	!	!LO:SIC:v:t=custos G	!	!	!	!	!	!	!
!	!	!LO:LB:g=original	!	!	!	!	!	!	!
.	.	2.G/	pur	1d	-do	2dd\	-do	1g	gri-
!LO:N:acc=#	!	!	!	!	!	!	!	!	!
2Bn\	do (et)	.	.	.	.	4r	.	.	.
.	.	4G/	co-	.	.	4dd\	(et)	.	.
=25-	=25-	=25-	=25-	=25-	=25-	=25-	=25-	=25-	=25-
4c\	pur	4C/	-lei	2c/	gri-	2ee-X\	pur	2g/	-do
!	!	!	!	!	!	!	!	!	!
4C/	co-	4c\	ſi	.	.	.	.	.	.
!LO:SIC:v:t=custos G	!	!LO:N:acc=#	!	!	!	!	!	!	!
!LO:LB:g=original	!	!	!	!	!	!	!	!	!
4G\	-lei	2Bn\	ta-	2d\	do et	2dd\	co-	4r	.
4G\	ſi	.	.	.	.	.	.	4dd\	(et)
!	!	!	!	!	!	!LO:SIC:v:t=custos cc	!	!	!
!	!	!	!	!	!	!LO:LB:g=original	!	!	!
2C/	ta-	4c\	-ce	1g	pur	2cc\	-lei	2ee-X\	pu
.	.	4G/	(et)	.	.	.	.	.	.
2GG/	-ce	4G/	pur	.	.	2b-\	ſi	2dd\	co-
.	.	4D/	co-	.	.	.	.	.	.
=26-	=26-	=26-	=26-	=26-	=26-	=26-	=26-	=26-	=26-
0r	.	4F/	-lei	4r	.	2a\	ta-	2cc\	-lei
.	.	4F/	ſi	4f\	co-	.	.	.	.
.	.	8G/	ta-	4d\	-lei	2g\	-ce	2b-\	ſi
.	.	8A/	.	.	.	.	.	.	.
.	.	8B-y\	.	4g\	ſi	.	.	.	.
.	.	8c\	.	.	.	.	.	.	.
.	.	2d\	.	2f#X\	ta-	0r	.	2a\	ta-
.	.	2G/	-ce	2g\	-ce	.	.	2g/	-ce
=27-	=27-	=27-	=27-	=27-	=27-	=27-	=27-	=27-	=27-
4r	.	4r	.	2r	.	.	.	1r	.
4G\	Ch'o-	4B-\	Ch'o-	.	.	.	.	.	.
4G\	-gni	4B-\	-gni	2d\	Ch'o-	.	.	.	.
4G\	mia	4B-\	mia	.	.	.	.	.	.
!	!	!LO:SIC:v:t=custos A	!	!	!	!	!	!	!
!	!	!LO:LB:g=original	!	!	!	!	!	!	!
2F\	ſpe-	2A/	ſpe-	4d\	-gni	1r	.	0r	.
.	.	.	.	4d\	mia	.	.	.	.
!	!	!	!	!LO:SIC:v:t=custos c	!	!	!	!	!
!	!	!	!	!LO:LB:g=original	!	!	!	!	!
4Eny\	-me	4G/	-me	2.c/	ſpe-	.	.	.	.
2F\	de-	2A/	de-	.	.	.	.	.	.
=28-	=28-	=28-	=28-	=28-	=28-	=28-	=28-	=28-	=28-
.	.	.	.	.	.	1r	.	.	.
4D/	-bol'-	4F/	-bol'-	4d\	-me	.	.	.	.
4E\	-et	4G/	-et	4.c/	de-	.	.	.	.
4F\	fal-	4A/	fal-	.	.	.	.	.	.
.	.	.	.	8d\	-bol'	.	.	.	.
4.G\	-la-	4.B-\	-la-	4e-X\	et	4r	.	1r	.
.	.	.	.	2d\	fal-	4g/	Ch'o-	.	.
8F\	.	8A/	.	.	.	.	.	.	.
2E-X\	.	2G/	.	.	.	4g/	-gni	.	.
.	.	.	.	4c/	-la-	4g/	mia	.	.
=29-	=29-	=29-	=29-	=29-	=29-	=29-	=29-	=29-	=29-
1D	-ce	2A/	-ce	2d\	-ce	2.f/	ſpe-	4r	.
.	.	.	.	.	.	.	.	4dd\	Ch'o-
.	.	4r	.	2a\	Ch'o-	.	.	4dd\	-gni
.	.	4A/	ch'o-	.	.	4d/	-me	4dd\	mia
1r	.	4A/	-gni	4a\	-gni	8e/	de-	2cc\	ſpe-
.	.	.	.	.	.	8d/	.	.	.
.	.	4A/	mia	4a\	mia	8e/	.	.	.
.	.	.	.	.	.	8f/	.	.	.
!	!	!	!	!	!	!	!	!LO:N:acc=#	!
.	.	4G/	ſpe-	4d\	ſpe-	4g/	.	4bn\	-me
.	.	4F/	-me	4fny\	-me	4a\	-bol'-	2cc\	de-
!LO:SIC:v:t=custos AA	!	!	!	!	!	!	!	!	!
!LO:LB:g=original	!	!	!	!	!	!	!	!	!
=30-	=30-	=30-	=30-	=30-	=30-	=30-	=30-	=30-	=30-
1r	.	4.G/	de-	4eny\	de-	4g/	-et	.	.
.	.	.	.	4d\	-bol'	4g/	fal-	4b-y\	-bo-
.	.	8G/	-bol'-	.	.	.	.	.	.
!	!	!	!	!	!	!	!	!LO:SIC:v:t=custos a	!
!	!	!	!	!	!	!	!	!LO:LB:g=original	!
.	.	4A/	-et	4c/	et	4f/	-la-	4a\	-l'et
.	.	4B-\	fal-	4d\	fal-	8e/	.	4g\	fal-
.	.	.	.	.	.	8d/	.	.	.
!	!	!LO:SIC:v:t=custos A	!	!LO:SIC:v:t=custos c#	!	!LO:SIC:v:t=custos e	!	!	!
!	!	!LO:LB:g=original	!	!LO:PB:g=original	!	!LO:LB:g=original	!	!	!
2r	.	2A/	-la-	4.c#X/	-la-	2e/	.	1a	-la-
!	!	!	!	!LO:N:acc=#	!	!	!	!	!
.	.	.	.	8Bn/	.	.	.	.	.
2AA/	Mi	2A/	-ce	2c#X/	.	4e/	.	.	.
.	.	.	.	.	.	4e/	-ce	.	.
=31-	=31-	=31-	=31-	=31-	=31-	=31-	=31-	=31-	=31-
2.D/	redn'-	4r	.	2d\	-ce	2.f#X/	Mi	1a	-ce
.	.	4A/	Mi	.	.	.	.	.	.
.	.	2.d\	rend'-	2A/	Mi	.	.	.	.
4Eny\	-et	.	.	.	.	4g/	ren-	.	.
2F#X\	il	.	.	2.d\	rend'	4a\	d'et il	4r	.
.	.	4c\	-et	.	.	4a\	pen-	4a\	Mi
2G\	pen-	4B-\	il	.	.	2g/	-ſier	2.dd\	ren-
.	.	4B-\	pen-	4e\	et	.	.	.	.
=32-	=32-	=32-	=32-	=32-	=32-	=32-	=32-	=32-	=32-
2D/	-ſier	2A/	-ſier	2f#X\	il	4r	.	.	.
.	.	.	.	.	.	4a\	Mi	4cc\	-d'et
2r	.	2G/	col-	2g\	pen-	2.dd\	rend'-	4b-\	il
.	.	.	.	.	.	.	.	4b-\	pen-
1r	.	2F#X/	-mo	2d\	-ſier	.	.	2a\	-ſier
.	.	.	.	.	.	4cc\	-et	.	.
.	.	2G/	d'er-	1d\	col-	4b-\	il	2g/	col-
.	.	.	.	.	.	4b-\	pen-	.	.
=33-	=33-	=33-	=33-	=33-	=33-	=33-	=33-	=33-	=33-
2r	.	1D	-ro-	.	.	2a\	-ſier	2f/	-mo
2D/	col-	.	.	2fny\	-mo	2d/	col-	2a\	d'er-
2C#X/	-mo	0.Al	-ri.	2e\	d'er-	2e/	-mo	0a	-ro-
2D/	d'er-	.	.	1d\	-ro-	2fny/	d'er-	.	.
=34-	=34-	=34-	=34-	=34-	=34-	=34-	=34-	=34-	=34-
1AA	-ro-	.	.	.	.	1e	-ro-	.	.
.	.	.	.	2c#X\	.	.	.	.	.
1Dl	-ri.	.	.	1dl	-ri.	1f#Xl	-ri.	1al	-ri.
=||	=||	=||	=||	=||	=||	=||	=||	=||	=||
*-	*-	*-	*-	*-	*-	*-	*-	*-	*-
!!!RDF**kern: l = terminal long
!!!system-decoration: [(s1,s2,s3,s4,s5)]
!!!ENC: Mateusz Solarz
!!!END: 2022-07-06
!!!ENC: Urszula Świątek
!!!END: 2022-07-28
